src/assets/icons/aeropay-1.svg

<svg  viewBox="0 0 24 24" fill="none" xmlns="http://www.w3.org/2000/svg">
<rect width="24" height="24" rx="12" fill="url(#paint0_linear_497_3738)"/>
<path fill-rule="evenodd" clip-rule="evenodd" d="M14.9506 5.4017C14.8652 5.25665 14.6761 5.20691 14.5283 5.2907L9.46809 8.15799C9.35293 8.2233 9.29313 8.35368 9.31984 8.4816L11.0228 16.6496C11.0311 16.6889 11.014 16.747 10.9883 16.7755L10.7814 17.0045C10.3512 17.4807 9.9868 17.7386 9.29416 17.7386C8.51751 17.7386 8.15287 17.3369 7.5755 16.6267C6.88593 15.7786 6.02792 14.7233 3.94176 14.7233H3.89018C3.60565 14.7233 3.375 14.9496 3.375 15.2289C3.375 15.5081 3.60565 15.7345 3.89018 15.7345H3.94176C5.5318 15.7345 6.13326 16.4742 6.77009 17.2574C7.33891 17.9571 7.98362 18.75 9.29416 18.75C10.4255 18.75 11.0481 18.2335 11.5523 17.6755L13.4121 15.6171C13.4121 15.617 17.8356 10.7211 17.8356 10.7211C17.9239 10.6234 17.9386 10.4812 17.8721 10.3681L14.9506 5.4017Z" fill="white"/>
<defs>
<linearGradient id="paint0_linear_497_3738" x1="-1.34063" y1="-1.02" x2="29.9317" y2="5.89457" gradientUnits="userSpaceOnUse">
<stop stop-color="#176FEB"/>
<stop offset="1" stop-color="#FF80FF"/>
</linearGradient>
</defs>
</svg>

<svg xmlns="http://www.w3.org/2000/svg" fill="none" viewBox="0 0 24 24"><rect width="24" height="24" fill="url(#a)" rx="12"/><path fill="#fff" fill-rule="evenodd" d="M14.95 5.402a.31.31 0 0 0-.422-.111l-5.06 2.867a.3.3 0 0 0-.148.324l1.703 8.168a.17.17 0 0 1-.035.126l-.207.229c-.43.476-.794.734-1.487.734-.776 0-1.141-.402-1.719-1.112-.69-.848-1.547-1.904-3.633-1.904H3.89a.51.51 0 0 0-.515.506c0 .28.23.506.515.506h.052c1.59 0 2.191.74 2.828 1.522.569.7 1.214 1.493 2.524 1.493 1.131 0 1.754-.517 2.258-1.075l1.86-2.058 4.424-4.896a.3.3 0 0 0 .036-.353z" clip-rule="evenodd"/><defs><linearGradient id="a" x1="-1.341" x2="29.932" y1="-1.02" y2="5.895" gradientUnits="userSpaceOnUse"><stop stop-color="#176FEB"/><stop offset="1" stop-color="#FF80FF"/></linearGradient></defs></svg>
